icons/icn_elevSol.svg

<svg width="24" xmlns="http://www.w3.org/2000/svg" height="24" id="screenshot-e387bb83-ae60-800e-8006-366ae6e63e4f" viewBox="0 0 24 24" xmlns:xlink="http://www.w3.org/1999/xlink" fill="none" version="1.1"><g id="shape-e387bb83-ae60-800e-8006-366ae6e63e4f"><g class="frame-container-wrapper"><g class="frame-container-blur"><g class="frame-container-shadows"><g fill="none"><g class="fills" id="fills-e387bb83-ae60-800e-8006-366ae6e63e4f"><rect rx="0" ry="0" x="0" y="0" width="24" height="24" transform="matrix(1, 0, 0, 1, 0, 0)" class="frame-background"/></g><g class="frame-children"><g id="shape-e387bb83-ae60-800e-8006-366ae6e63e76" rx="0" ry="0" style="fill: rgb(0, 0, 0);"><g id="shape-e387bb83-ae60-800e-8006-366ae6e63e77"><g class="fills" id="fills-e387bb83-ae60-800e-8006-366ae6e63e77"><path d="M6.678902626037598,1.6276973485946655C6.467232704162598,1.6275752782821655,6.264351844787598,1.7115596532821655,6.114937782287598,1.8610957860946655C5.965279579162598,2.010632038116455,5.881295204162598,2.213512897491455,5.881539344787598,2.424938678741455C5.881539344787598,5.825451374053955,8.554635047912598,8.625743865966797,11.875679969787598,8.625743865966797C15.196724891662598,8.625743865966797,17.877145767211914,5.825451374053955,17.877145767211914,2.424938678741455C17.877389907836914,2.213512897491455,17.793405532836914,2.010632038116455,17.643747329711914,1.8610957860946655C17.494333267211914,1.7115596532821655,17.291452407836914,1.6275752782821655,17.080026626586914,1.6276973485946655C16.868356704711914,1.6275752782821655,16.665475845336914,1.7115596532821655,16.516061782836914,1.8610957860946655C16.366403579711914,2.010632038116455,16.282419204711914,2.213512897491455,16.282663345336914,2.424938678741455C16.282663345336914,4.996716022491455,14.302193641662598,7.031261920928955,11.875679969787598,7.031261920928955C9.449166297912598,7.031261920928955,7.468697547912598,4.996716022491455,7.468697547912598,2.424938678741455C7.468941688537598,1.9874385595321655,7.116402626037598,1.6314815282821655,6.678902626037598,1.6276973485946655Z" style="display: inline; stroke-linecap: round; stroke-linejoin: round;"/></g></g><g id="shape-e387bb83-ae60-800e-8006-366ae6e63e78"><g class="fills" id="fills-e387bb83-ae60-800e-8006-366ae6e63e78"><path d="M12.000679969787598,14.251232147216797C11.801217079162598,14.251354217529297,11.610054969787598,14.330699920654297,11.469429969787598,14.471935272216797L8.473336219787598,17.469982147216797C8.332222938537598,17.610729217529297,8.252633094787598,17.801891326904297,8.252633094787598,18.001232147216797C8.252633094787598,18.200572967529297,8.332222938537598,18.391735076904297,8.473336219787598,18.532482147216797C8.765572547912598,18.821422576904297,9.235787391662598,18.821422576904297,9.528023719787598,18.532482147216797L11.248726844787598,16.811779022216797L11.248726844787598,22.001232147216797C11.247750282287598,22.201183319091797,11.326607704162598,22.393199920654297,11.467720985412598,22.534801483154297C11.608834266662598,22.676403045654297,11.800728797912598,22.755626678466797,12.000679969787598,22.755138397216797C12.200875282287598,22.756237030029297,12.393258094787598,22.677135467529297,12.534859657287598,22.535533905029297C12.676461219787598,22.393932342529297,12.755562782287598,22.201549530029297,12.754586219787598,22.001232147216797L12.754586219787598,16.815685272216797L14.467476844787598,18.532482147216797C14.608101844787598,18.673717498779297,14.799263954162598,18.753063201904297,14.998726844787598,18.753063201904297C15.198189735412598,18.753063201904297,15.389351844787598,18.673717498779297,15.529976844787598,18.532482147216797C15.671090126037598,18.391735076904297,15.750679969787598,18.200572967529297,15.750679969787598,18.001232147216797C15.750679969787598,17.801891326904297,15.671090126037598,17.610729217529297,15.529976844787598,17.469982147216797L12.531929969787598,14.471935272216797C12.391304969787598,14.330699920654297,12.200142860412598,14.251354217529297,12.000679969787598,14.251232147216797Z" style="display: inline; stroke-linecap: round; stroke-linejoin: round;"/></g></g><g id="shape-e387bb83-ae60-800e-8006-366ae6e63e79"><g class="fills" id="fills-e387bb83-ae60-800e-8006-366ae6e63e79"><path d="M12.001168251037598,10.249767303466797C11.801217079162598,10.249034881591797,11.609322547912598,10.328014373779297,11.467965126037598,10.469493865966797C11.326607704162598,10.610851287841797,11.247506141662598,10.802745819091797,11.248238563537598,11.002696990966797L11.248238563537598,11.999279022216797C11.247506141662598,12.199230194091797,11.326607704162598,12.391246795654297,11.467965126037598,12.532604217529297C11.609322547912598,12.673961639404297,11.801217079162598,12.753063201904297,12.001168251037598,12.752208709716797C12.201119422912598,12.753063201904297,12.393013954162598,12.673961639404297,12.534371376037598,12.532604217529297C12.675728797912598,12.391246795654297,12.754830360412598,12.199230194091797,12.754097938537598,11.999279022216797L12.754097938537598,11.002696990966797C12.754830360412598,10.802745819091797,12.675728797912598,10.610851287841797,12.534371376037598,10.469493865966797C12.393013954162598,10.328014373779297,12.201119422912598,10.249034881591797,12.001168251037598,10.249767303466797Z" style="display: inline; stroke-linecap: round; stroke-linejoin: round;"/></g></g><g id="shape-e387bb83-ae60-800e-8006-366ae6e63e7a"><g class="fills" id="fills-e387bb83-ae60-800e-8006-366ae6e63e7a"><path d="M5.468209266662598,9.467296600341797L2.4711389541625977,12.471691131591797C2.3297815322875977,12.612438201904297,2.2501916885375977,12.803722381591797,2.2501916885375977,13.003185272216797C2.2501916885375977,13.202770233154297,2.3297815322875977,13.393932342529297,2.4711389541625977,13.534679412841797C2.6120080947875977,13.676036834716797,2.8031702041625977,13.755504608154297,3.0026330947875977,13.755504608154297C3.2020959854125977,13.755504608154297,3.3935022354125977,13.676036834716797,3.5341272354125977,13.534679412841797L6.531197547912598,10.530284881591797C6.672554969787598,10.389537811279297,6.752144813537598,10.198253631591797,6.752144813537598,9.998790740966797C6.752144813537598,9.799327850341797,6.672554969787598,9.608043670654297,6.531197547912598,9.467296600341797C6.390328407287598,9.325939178466797,6.199166297912598,9.246471405029297,5.999703407287598,9.246471405029297C5.800240516662598,9.246471405029297,5.608834266662598,9.325939178466797,5.468209266662598,9.467296600341797Z" style="display: inline; stroke-linecap: round; stroke-linejoin: round;"/></g></g><g id="shape-e387bb83-ae60-800e-8006-366ae6e63e7b"><g class="fills" id="fills-e387bb83-ae60-800e-8006-366ae6e63e7b"><path d="M18.584421157836914,9.467052459716797L21.581491470336914,12.471569061279297C21.722848892211914,12.612316131591797,21.802438735961914,12.803478240966797,21.802438735961914,13.003063201904297C21.802438735961914,13.202526092529297,21.722848892211914,13.393810272216797,21.581491470336914,13.534557342529297C21.440866470336914,13.675914764404297,21.249460220336914,13.755382537841797,21.049997329711914,13.755382537841797C20.850534439086914,13.755382537841797,20.659372329711914,13.675914764404297,20.518503189086914,13.534557342529297L17.521432876586914,10.530040740966797C17.380075454711914,10.389293670654297,17.300729751586914,10.198131561279297,17.300729751586914,9.998546600341797C17.300729751586914,9.799083709716797,17.380075454711914,9.607799530029297,17.521432876586914,9.467052459716797C17.662302017211914,9.325695037841797,17.853464126586914,9.246227264404297,18.052927017211914,9.246227264404297C18.252389907836914,9.246227264404297,18.443796157836914,9.325695037841797,18.584421157836914,9.467052459716797Z" style="display: inline; stroke-linecap: round; stroke-linejoin: round;"/></g></g><g id="shape-e387bb83-ae60-800e-8006-366ae6e63e7c"><g class="fills" id="fills-e387bb83-ae60-800e-8006-366ae6e63e7c"><path d="M20.460886001586914,2.247814655303955C20.047067642211914,2.250256061553955,19.713571548461914,2.587170124053955,19.715280532836914,3.000744342803955C19.713571548461914,3.414440631866455,20.047067642211914,3.751232624053955,20.460886001586914,3.753674030303955L22.461374282836914,3.753674030303955C22.661325454711914,3.754528522491455,22.853219985961914,3.675426959991455,22.994577407836914,3.534069538116455C23.135934829711914,3.392712116241455,23.215036392211914,3.200695514678955,23.214303970336914,3.000744342803955C23.215036392211914,2.800793170928955,23.135934829711914,2.608898639678955,22.994577407836914,2.467419147491455C22.853219985961914,2.326061725616455,22.661325454711914,2.247082233428955,22.461374282836914,2.247814655303955Z" style="display: inline; stroke-linecap: round; stroke-linejoin: round;"/></g></g><g id="shape-e387bb83-ae60-800e-8006-366ae6e63e7d"><g class="fills" id="fills-e387bb83-ae60-800e-8006-366ae6e63e7d"><path d="M1.9987268447875977,2.247814655303955C1.5851526260375977,2.250256061553955,1.2514123916625977,2.587170124053955,1.2531213760375977,3.000744342803955C1.2514123916625977,3.414440631866455,1.5851526260375977,3.751232624053955,1.9987268447875977,3.753674030303955L3.9992151260375977,3.753674030303955C4.415719032287598,3.755383014678955,4.753853797912598,3.417248249053955,4.752144813537598,3.000744342803955C4.753853797912598,2.584240436553955,4.415719032287598,2.246227741241455,3.9992151260375977,2.247814655303955Z" style="display: inline; stroke-linecap: round; stroke-linejoin: round;"/></g></g></g></g></g></g></g></g></g></svg>

<svg fill="none" viewBox="0 0 24 24"><g class="frame-container-wrapper"><g class="frame-container-blur"><g class="frame-container-shadows"><g class="fills"><rect width="24" height="24" class="frame-background" rx="0" ry="0"/></g><g fill="#000" class="frame-children"><path d="M6.6789 1.6277a.7965.7965 0 0 0-.7974.7972c0 3.4006 2.6731 6.2008 5.9942 6.2008 3.321 0 6.0014-2.8002 6.0014-6.2008a.7958.7958 0 0 0-.2334-.5638.7963.7963 0 0 0-.5637-.2334.7965.7965 0 0 0-.7973.7972c0 2.5718-1.9805 4.6064-4.407 4.6064s-4.407-2.0346-4.407-4.6064a.7968.7968 0 0 0-.7898-.7972ZM12.0007 14.2512a.7502.7502 0 0 0-.5313.2207l-2.996 2.998a.7506.7506 0 0 0-.2208.5313c0 .1994.0796.3905.2207.5313a.75.75 0 0 0 1.0547 0l1.7207-1.7207v5.1894a.7497.7497 0 0 0 .752.754.7497.7497 0 0 0 .7539-.754v-5.1855l1.7129 1.7168a.7496.7496 0 0 0 .5312.2206.7496.7496 0 0 0 .5313-.2206.7506.7506 0 0 0 .2207-.5313.7506.7506 0 0 0-.2207-.5312l-2.998-2.998a.7502.7502 0 0 0-.5313-.2208ZM12.0012 10.2498a.7501.7501 0 0 0-.753.753v.9965a.7504.7504 0 0 0 .753.753.7504.7504 0 0 0 .753-.753l-.0001-.9966a.7501.7501 0 0 0-.753-.753ZM5.4682 9.4673l-2.997 3.0044a.75.75 0 0 0 0 1.063.7503.7503 0 0 0 1.063 0l2.997-3.0044a.7502.7502 0 0 0 .221-.5315.7502.7502 0 0 0-.221-.5315.7503.7503 0 0 0-1.063 0ZM18.5844 9.467l2.997 3.0046a.75.75 0 0 1 0 1.063.7498.7498 0 0 1-1.0629 0l-2.997-3.0046a.75.75 0 0 1 0-1.063.7503.7503 0 0 1 1.063 0ZM20.4609 2.2478a.7499.7499 0 0 0-.7456.753.7498.7498 0 0 0 .7456.7529h2.0005a.7504.7504 0 0 0 .753-.753.75.75 0 0 0-.753-.753ZM1.9987 2.2478a.75.75 0 0 0-.7456.753.75.75 0 0 0 .7456.7529h2.0005a.7499.7499 0 0 0 .753-.753.75.75 0 0 0-.753-.7529Z" class="fills"/></g></g></g></g></svg>
